src/lib/packages/icons/src/assets/line/speedometer.svg

<svg width="24" height="24" viewBox="0 0 24 24" fill="none" xmlns="http://www.w3.org/2000/svg">
<path d="M12 1.25C6.072 1.25 1.25 6.073 1.25 12C1.25 17.927 6.072 22.75 12 22.75C17.928 22.75 22.75 17.927 22.75 12C22.75 6.073 17.928 1.25 12 1.25ZM12 21.25C6.899 21.25 2.75 17.101 2.75 12C2.75 6.899 6.899 2.75 12 2.75C17.101 2.75 21.25 6.899 21.25 12C21.25 17.101 17.101 21.25 12 21.25ZM14.779 7.80099C10.969 9.849 10.548 10.271 10.409 10.409C9.984 10.834 9.75 11.399 9.75 12C9.75 12.601 9.984 13.166 10.409 13.591C10.834 14.016 11.399 14.25 12 14.25C12.601 14.25 13.166 14.016 13.59 13.591C13.728 13.454 14.148 13.035 16.199 9.22101C16.42 8.81001 16.347 8.31199 16.017 7.98199C15.688 7.65299 15.19 7.57999 14.779 7.80099ZM12.53 12.53L13.06 13.06L12.53 12.53C12.247 12.813 11.753 12.814 11.469 12.53C11.327 12.388 11.249 12.2 11.249 12C11.249 11.8 11.327 11.612 11.469 11.47C11.627 11.315 12.428 10.805 14.145 9.854C12.881 12.139 12.566 12.493 12.53 12.53ZM6.75 12C6.75 12.945 6.98699 13.826 7.45599 14.618C7.66699 14.975 7.54899 15.434 7.19199 15.645C7.07199 15.716 6.941 15.749 6.811 15.749C6.555 15.749 6.30501 15.617 6.16501 15.381C5.56701 14.369 5.25 13.2 5.25 11.999C5.25 8.27699 8.278 5.24899 12 5.24899C12.488 5.24899 12.964 5.3 13.457 5.405C13.862 5.492 14.12 5.89001 14.034 6.29501C13.948 6.70001 13.547 6.957 13.144 6.871C9.80901 6.161 6.75 8.724 6.75 12ZM18.75 12C18.75 13.2 18.434 14.369 17.835 15.382C17.695 15.619 17.445 15.75 17.189 15.75C17.059 15.75 16.928 15.717 16.808 15.646C16.452 15.435 16.333 14.975 16.544 14.619C17.012 13.827 17.25 12.946 17.25 12.001C17.25 11.618 17.209 11.245 17.126 10.859C17.039 10.454 17.297 10.055 17.702 9.96799C18.109 9.88099 18.506 10.138 18.593 10.543C18.699 11.033 18.75 11.51 18.75 12Z" fill="currentColor"/>
</svg>

<svg xmlns="http://www.w3.org/2000/svg" width="24" height="24" fill="none"><path fill="currentColor" d="M12 1.25C6.072 1.25 1.25 6.073 1.25 12S6.072 22.75 12 22.75 22.75 17.927 22.75 12 17.928 1.25 12 1.25Zm0 20c-5.101 0-9.25-4.149-9.25-9.25S6.899 2.75 12 2.75s9.25 4.149 9.25 9.25-4.149 9.25-9.25 9.25Zm2.779-13.449c-3.81 2.048-4.231 2.47-4.37 2.608-.425.425-.659.99-.659 1.591s.234 1.166.659 1.591c.425.425.99.659 1.591.659s1.166-.234 1.59-.659c.138-.137.558-.556 2.609-4.37a1.043 1.043 0 0 0-.182-1.239 1.043 1.043 0 0 0-1.238-.181ZM12.53 12.53l.53.53-.53-.53a.768.768 0 0 1-1.061 0 .744.744 0 0 1 0-1.06c.158-.155.959-.665 2.676-1.616-1.264 2.285-1.579 2.639-1.615 2.676ZM6.75 12c0 .945.237 1.826.706 2.618a.75.75 0 1 1-1.291.763 6.647 6.647 0 0 1-.915-3.382 6.758 6.758 0 0 1 8.207-6.594.75.75 0 0 1-.313 1.466C9.809 6.161 6.75 8.724 6.75 12Zm12 0c0 1.2-.316 2.369-.915 3.382a.749.749 0 1 1-1.291-.763 5.076 5.076 0 0 0 .706-2.618c0-.383-.041-.756-.124-1.142a.75.75 0 0 1 1.467-.316c.106.49.157.967.157 1.457Z"/></svg>
